X: 1
T: Earl of Lauderdale
B: RSCDS 8-3
B: Gow's Collection
N: Alternative tune for Calver Lodge
R: reel
Z: John Chambers <jc:trillian.mit.edu>
M: C|
L: 1/8
K: G
     D | "G"G2Bd "D7"cAFD | "G"GBdg    edcB | "Am"ceAc "G"BdGB | "D7"AcDF "G"G3 ||
|::: d | "Em"gbeg "D"fadf | "C"egce "G"edcB | "Am"ceAc "G"BdGB | "D7"AcDF "G"G3 :::|
